;FLAVOR:Marlin
;TIME:17071
;Filament used: 25.1342m
;Layer height: 0.32
;MINX:76.9
;MINY:61.4
;MINZ:0.32
;MAXX:143.1
;MAXY:158.6
;MAXZ:89.92
;Generated with Cura_SteamEngine 4.13.0
M140 S60
M105
M190 S60
M104 S200
M105
M109 S200
M82 ;absolute extrusion mode
; Ender 3 Custom Start G-code
G92 E0 ; Reset Extruder
G28 ; Home all axes
G1 Z2.0 F3000 ; Move Z Axis up little to prevent scratching of Heat Bed
G1 X0.1 Y20 Z0.3 F5000.0 ; Move to start position
G1 X0.1 Y200.0 Z0.3 F1500.0 E15 ; Draw the first line
G1 X0.4 Y200.0 Z0.3 F5000.0 ; Move to side a little
G1 X0.4 Y20 Z0.3 F1500.0 E30 ; Draw the second line
G92 E0 ; Reset Extruder
G1 Z2.0 F3000 ; Move Z Axis up little to prevent scratching of Heat Bed
G1 X5 Y20 Z0.3 F5000.0 ; Move over to prevent blob squish
G92 E0
G92 E0
G1 F1500 E-6.5
;LAYER_COUNT:281
;LAYER:0
M107
G0 F6000 X79.132 Y64.657 Z0.32
;TYPE:SKIRT
G1 F1500 E0
G1 F1200 X79.552 Y64.202 E0.04943
G1 X79.702 Y64.052 E0.06636
G1 X80.299 Y63.512 E0.13062
G1 X80.793 Y63.139 E0.18003
G1 X80.962 Y63.021 E0.19648
G1 X81.644 Y62.593 E0.26076
G1 X82.145 Y62.336 E0.3057
G1 X82.338 Y62.245 E0.32274
G1 X83.082 Y61.938 E0.38698
G1 X83.707 Y61.744 E0.43922
G1 X83.906 Y61.691 E0.45566
G1 X84.693 Y61.523 E0.5199
G1 X85.299 Y61.448 E0.56864
G1 X85.509 Y61.43 E0.58546
G1 X86.201 Y61.4 E0.64075
G1 X133.799 Y61.4 E4.44023
G1 X134.491 Y61.43 E4.49552
G1 X134.701 Y61.448 E4.51235
G1 X135.498 Y61.556 E4.57655
G1 X136.094 Y61.691 E4.62533
G1 X136.293 Y61.744 E4.64177
G1 X137.059 Y61.989 E4.70597
G1 X137.662 Y62.245 E4.75826
G1 X137.855 Y62.336 E4.77529
G1 X138.565 Y62.714 E4.8395
G1 X139.038 Y63.021 E4.88451
G1 X139.207 Y63.139 E4.90096
G1 X139.843 Y63.632 E4.9652
G1 X140.298 Y64.052 E5.01463
G1 X140.448 Y64.202 E5.03156
G1 X140.988 Y64.799 E5.09582
G1 X141.361 Y65.293 E5.14523
G1 X141.479 Y65.462 E5.16168
G1 X141.907 Y66.144 E5.22595
G1 X142.164 Y66.645 E5.2709
G1 X142.255 Y66.838 E5.28793
G1 X142.562 Y67.582 E5.35218
G1 X142.756 Y68.207 E5.40442
G1 X142.809 Y68.406 E5.42086
G1 X142.977 Y69.193 E5.4851
G1 X143.052 Y69.793 E5.53336
G1 X143.07 Y70.001 E5.55003
G1 X143.1 Y70.699 E5.6058
G1 X143.1 Y149.299 E11.87999
G1 X143.07 Y149.991 E11.93528
G1 X143.052 Y150.201 E11.9521
G1 X142.944 Y150.998 E12.01631
G1 X142.809 Y151.594 E12.06509
G1 X142.756 Y151.793 E12.08152
G1 X142.511 Y152.559 E12.14572
G1 X142.255 Y153.162 E12.19801
G1 X142.164 Y153.355 E12.21505
G1 X141.786 Y154.065 E12.27925
G1 X141.479 Y154.538 E12.32427
G1 X141.361 Y154.707 E12.34072
G1 X140.868 Y155.343 E12.40495
G1 X140.448 Y155.798 E12.45438
G1 X140.298 Y155.948 E12.47132
G1 X139.701 Y156.488 E12.53557
G1 X139.207 Y156.861 E12.58498
G1 X139.038 Y156.979 E12.60144
G1 X138.356 Y157.407 E12.66571
G1 X137.855 Y157.664 E12.71066
G1 X137.662 Y157.755 E12.72769
G1 X136.918 Y158.062 E12.79194
G1 X136.293 Y158.256 E12.84418
G1 X136.094 Y158.309 E12.86061
G1 X135.307 Y158.477 E12.92485
G1 X134.701 Y158.552 E12.97359
G1 X134.491 Y158.57 E12.99042
G1 X133.799 Y158.6 E13.04571
G1 X86.201 Y158.6 E16.84519
G1 X85.509 Y158.57 E16.90048
G1 X85.299 Y158.552 E16.9173
G1 X84.502 Y158.444 E16.9815
G1 X83.906 Y158.309 E17.03028
G1 X83.707 Y158.256 E17.04672
G1 X82.941 Y158.011 E17.11092
G1 X82.338 Y157.755 E17.16321
G1 X82.145 Y157.664 E17.18024
G1 X81.435 Y157.286 E17.24445
G1 X80.962 Y156.979 E17.28946
G1 X80.793 Y156.861 E17.30592
G1 X80.157 Y156.368 E17.37015
G1 X79.702 Y155.948 E17.41958
G1 X79.552 Y155.798 E17.43651
G1 X79.012 Y155.201 E17.50077
G1 X78.639 Y154.707 E17.55018
G1 X78.521 Y154.538 E17.56664
G1 X78.093 Y153.856 E17.63091
G1 X77.836 Y153.355 E17.67586
G1 X77.745 Y153.162 E17.69289
G1 X77.438 Y152.418 E17.75713
G1 X77.244 Y151.793 E17.80937
G1 X77.191 Y151.594 E17.82581
G1 X77.023 Y150.807 E17.89005
G1 X76.948 Y150.207 E17.93832
G1 X76.93 Y149.999 E17.95498
G1 X76.9 Y149.301 E18.01075
G1 X76.9 Y70.701 E24.28494
G1 X76.93 Y70.009 E24.34023
G1 X76.948 Y69.799 E24.35706
G1 X77.056 Y69.002 E24.42126
G1 X77.191 Y68.406 E24.47004
G1 X77.244 Y68.207 E24.48648
G1 X77.489 Y67.441 E24.55068
G1 X77.745 Y66.838 E24.60297
G1 X77.836 Y66.645 E24.62
G1 X78.214 Y65.935 E24.68421
G1 X78.521 Y65.462 E24.72922
G1 X78.639 Y65.293 E24.74567
G1 X79.132 Y64.657 E24.80991
G0 F6000 X79.606 Y65.025
G1 F1200 X79.977 Y64.627 E24.85334
G1 X80.127 Y64.477 E24.87027
G1 X80.702 Y63.958 E24.9321
G1 X81.136 Y63.631 E24.97548
G1 X81.305 Y63.513 E24.99193
G1 X81.962 Y63.103 E25.05375
G1 X82.4 Y62.878 E25.09306
G1 X82.593 Y62.787 E25.11009
G1 X83.31 Y62.494 E25.17192
G1 X83.862 Y62.324 E25.21803
G1 X84.061 Y62.271 E25.23446
G1 X84.818 Y62.11 E25.29624
G1 X85.35 Y62.045 E25.33903
G1 X85.56 Y62.027 E25.35585
G1 X86.201 Y62 E25.40706
G1 X133.799 Y62 E29.20654
G1 X134.44 Y62.027 E29.25775
G1 X134.65 Y62.045 E29.27458
G1 X135.417 Y62.151 E29.33639
G1 X135.939 Y62.271 E29.37914
G1 X136.138 Y62.324 E29.39558
G1 X136.875 Y62.561 E29.45738
G1 X137.407 Y62.787 E29.50352
G1 X137.6 Y62.878 E29.52055
G1 X138.282 Y63.244 E29.58233
G1 X138.695 Y63.513 E29.62168
G1 X138.864 Y63.631 E29.63813
G1 X139.475 Y64.106 E29.69991
G1 X139.873 Y64.477 E29.74334
G1 X140.023 Y64.627 E29.76027
G1 X140.542 Y65.202 E29.8221
G1 X140.869 Y65.636 E29.86548
G1 X140.987 Y65.805 E29.88193
G1 X141.397 Y66.462 E29.94375
G1 X141.622 Y66.9 E29.98306
G1 X141.713 Y67.093 E30.00009
G1 X142.006 Y67.81 E30.06192
G1 X142.176 Y68.362 E30.10803
G1 X142.229 Y68.561 E30.12447
G1 X142.39 Y69.318 E30.18624
G1 X142.454 Y69.844 E30.22854
G1 X142.472 Y70.052 E30.24521
G1 X142.5 Y70.699 E30.2969
G1 X142.5 Y149.299 E36.57109
G1 X142.473 Y149.94 E36.62231
G1 X142.455 Y150.15 E36.63913
G1 X142.349 Y150.917 E36.70094
G1 X142.229 Y151.439 E36.74369
G1 X142.176 Y151.638 E36.76013
G1 X141.939 Y152.375 E36.82193
G1 X141.713 Y152.907 E36.86807
G1 X141.622 Y153.1 E36.8851
G1 X141.256 Y153.782 E36.94689
G1 X140.987 Y154.195 E36.98623
G1 X140.869 Y154.364 E37.00268
G1 X140.394 Y154.975 E37.06446
G1 X140.023 Y155.373 E37.10789
G1 X139.873 Y155.523 E37.12483
G1 X139.298 Y156.042 E37.18666
G1 X138.864 Y156.369 E37.23003
G1 X138.695 Y156.487 E37.24649
G1 X138.038 Y156.897 E37.30831
G1 X137.6 Y157.122 E37.34761
G1 X137.407 Y157.213 E37.36464
G1 X136.69 Y157.506 E37.42647
G1 X136.138 Y157.676 E37.47258
G1 X135.939 Y157.729 E37.48902
G1 X135.182 Y157.89 E37.5508
G1 X134.65 Y157.955 E37.59358
G1 X134.44 Y157.973 E37.6104
G1 X133.799 Y158 E37.66162
G1 X86.201 Y158 E41.46109
G1 X85.56 Y157.973 E41.51231
G1 X85.35 Y157.955 E41.52913
G1 X84.583 Y157.849 E41.59094
G1 X84.061 Y157.729 E41.63369
G1 X83.862 Y157.676 E41.65013
G1 X83.125 Y157.439 E41.71193
G1 X82.593 Y157.213 E41.75807
G1 X82.4 Y157.122 E41.7751
G1 X81.718 Y156.756 E41.83689
G1 X81.305 Y156.487 E41.87623
G1 X81.136 Y156.369 E41.89268
G1 X80.525 Y155.894 E41.95446
G1 X80.127 Y155.523 E41.99789
G1 X79.977 Y155.373 E42.01483
G1 X79.458 Y154.798 E42.07666
G1 X79.131 Y154.364 E42.12003
G1 X79.013 Y154.195 E42.13649
G1 X78.603 Y153.538 E42.19831
G1 X78.378 Y153.1 E42.23761
G1 X78.287 Y152.907 E42.25464
G1 X77.994 Y152.19 E42.31647
G1 X77.824 Y151.638 E42.36258
G1 X77.771 Y151.439 E42.37902
G1 X77.61 Y150.682 E42.4408
G1 X77.546 Y150.156 E42.48309
G1 X77.528 Y149.948 E42.49976
G1 X77.5 Y149.301 E42.55145
G1 X77.5 Y70.701 E48.82564
G1 X77.527 Y70.06 E48.87686
G1 X77.545 Y69.85 E48.89368
G1 X77.651 Y69.083 E48.95549
G1 X77.771 Y68.561 E48.99824
G1 X77.824 Y68.362 E49.01468
G1 X78.061 Y67.625 E49.07648
G1 X78.287 Y67.093 E49.12262
G1 X78.378 Y66.9 E49.13965
G1 X78.744 Y66.218 E49.20144
G1 X79.013 Y65.805 E49.24078
G1 X79.131 Y65.636 E49.25723
G1 X79.606 Y65.025 E49.31901
G0 F6000 X80.08 Y65.395
G1 F1200 X80.401 Y65.051 E49.35657
G1 X80.551 Y64.901 E49.3735
G1 X81.104 Y64.405 E49.4328
G1 X81.48 Y64.123 E49.47032
G1 X81.649 Y64.005 E49.48677
G1 X82.28 Y63.613 E49.54607
G1 X82.656 Y63.421 E49.57977
G1 X82.849 Y63.33 E49.5968
G1 X83.537 Y63.05 E49.6561
G1 X84.016 Y62.903 E49.69609
G1 X84.215 Y62.85 E49.71253
G1 X84.942 Y62.698 E49.77182
G1 X85.402 Y62.643 E49.8088
G1 X85.612 Y62.625 E49.82562
G1 X86.201 Y62.6 E49.87268
G1 X133.799 Y62.6 E53.67216
G1 X134.388 Y62.625 E53.71922
G1 X134.598 Y62.643 E53.73604
G1 X135.334 Y62.746 E53.79537
G1 X135.785 Y62.85 E53.83231
G1 X135.984 Y62.903 E53.84875
G1 X136.69 Y63.133 E53.90802
G1 X137.151 Y63.33 E53.94804
G1 X137.344 Y63.421 E53.96507
G1 X137.997 Y63.773 E54.02429
G1 X138.351 Y64.005 E54.05807
G1 X138.52 Y64.123 E54.07453
G1 X139.105 Y64.58 E54.13378
G1 X139.449 Y64.901 E54.17134
G1 X139.599 Y65.051 E54.18828
G1 X140.095 Y65.604 E54.24757
G1 X140.377 Y65.98 E54.28509
G1 X140.495 Y66.149 E54.30154
G1 X140.887 Y66.78 E54.36084
G1 X141.079 Y67.156 E54.39454
G1 X141.17 Y67.349 E54.41157
G1 X141.45 Y68.037 E54.47087
G1 X141.597 Y68.516 E54.51086
G1 X141.65 Y68.715 E54.5273
G1 X141.802 Y69.442 E54.58659
G1 X141.856 Y69.896 E54.62309
G1 X141.874 Y70.104 E54.63975
G1 X141.9 Y70.699 E54.68729
G1 X141.9 Y149.299 E60.96148
G1 X141.875 Y149.888 E61.00854
G1 X141.857 Y150.098 E61.02537
G1 X141.754 Y150.834 E61.08469
G1 X141.65 Y151.285 E61.12164
G1 X141.597 Y151.484 E61.13807
G1 X141.367 Y152.19 E61.19735
G1 X141.17 Y152.651 E61.23736
G1 X141.079 Y152.844 E61.2544
G1 X140.727 Y153.497 E61.31361
G1 X140.495 Y153.851 E61.3474
G1 X140.377 Y154.02 E61.36385
G1 X139.92 Y154.605 E61.42311
G1 X139.599 Y154.949 E61.46067
G1 X139.449 Y155.099 E61.4776
G1 X138.896 Y155.595 E61.5369
G1 X138.52 Y155.877 E61.57441
G1 X138.351 Y155.995 E61.59087
G1 X137.72 Y156.387 E61.65017
G1 X137.344 Y156.579 E61.68387
G1 X137.151 Y156.67 E61.7009
G1 X136.463 Y156.95 E61.76019
G1 X135.984 Y157.097 E61.80019
G1 X135.785 Y157.15 E61.81663
G1 X135.058 Y157.302 E61.87591
G1 X134.598 Y157.357 E61.91289
G1 X134.388 Y157.375 E61.92972
G1 X133.799 Y157.4 E61.97678
G1 X86.201 Y157.4 E65.77626
G1 X85.612 Y157.375 E65.82331
G1 X85.402 Y157.357 E65.84014
G1 X84.666 Y157.254 E65.89946
G1 X84.215 Y157.15 E65.93641
G1 X84.016 Y157.097 E65.95285
G1 X83.31 Y156.867 E66.01212
G1 X82.849 Y156.67 E66.05214
G1 X82.656 Y156.579 E66.06917
G1 X82.003 Y156.227 E66.12839
G1 X81.649 Y155.995 E66.16217
G1 X81.48 Y155.877 E66.17862
G1 X80.895 Y155.42 E66.23788
G1 X80.551 Y155.099 E66.27544
G1 X80.401 Y154.949 E66.29237
G1 X79.905 Y154.396 E66.35167
G1 X79.623 Y154.02 E66.38919
G1 X79.505 Y153.851 E66.40564
G1 X79.113 Y153.22 E66.46494
G1 X78.921 Y152.844 E66.49864
G1 X78.83 Y152.651 E66.51567
G1 X78.55 Y151.963 E66.57496
G1 X78.403 Y151.484 E66.61496
G1 X78.35 Y151.285 E66.6314
G1 X78.198 Y150.558 E66.69069
G1 X78.144 Y150.104 E66.72718
G1 X78.126 Y149.896 E66.74385
G1 X78.1 Y149.301 E66.79139
G1 X78.1 Y70.701 E73.06558
G1 X78.125 Y70.112 E73.11264
G1 X78.143 Y69.902 E73.12946
G1 X78.246 Y69.166 E73.18879
G1 X78.35 Y68.715 E73.22573
G1 X78.403 Y68.516 E73.24217
G1 X78.633 Y67.81 E73.30144
G1 X78.83 Y67.349 E73.34146
G1 X78.921 Y67.156 E73.35849
G1 X79.273 Y66.503 E73.41771
G1 X79.505 Y66.149 E73.45149
G1 X79.623 Y65.98 E73.46795
G1 X80.08 Y65.395 E73.52721
G0 F6000 X80.553 Y65.765
G1 F1200 X80.825 Y65.475 E73.55894
G1 X80.975 Y65.325 E73.57588
G1 X81.504 Y64.852 E73.63252
G1 X81.823 Y64.615 E73.66424
G1 X81.992 Y64.497 E73.6807
G1 X82.912 Y63.964 E73.76557
G1 X83.105 Y63.873 E73.7826
G1 X83.763 Y63.607 E73.83926
G1 X84.171 Y63.483 E73.8733
G1 X84.37 Y63.43 E73.88974
G1 X85.065 Y63.286 E73.94639
G1 X85.453 Y63.241 E73.97757
G1 X85.663 Y63.223 E73.9944
G1 X86.201 Y63.2 E74.03738
G1 X133.799 Y63.2 E77.83686
G1 X134.337 Y63.223 E77.87984
G1 X134.547 Y63.241 E77.89667
G1 X135.25 Y63.341 E77.95335
G1 X135.63 Y63.43 E77.9845
G1 X135.829 Y63.483 E78.00094
G1 X136.504 Y63.704 E78.05764
G1 X136.895 Y63.873 E78.09164
G1 X137.088 Y63.964 E78.10867
G1 X138.008 Y64.497 E78.19355
G1 X138.177 Y64.615 E78.21
G1 X138.735 Y65.053 E78.26662
G1 X139.025 Y65.325 E78.29836
G1 X139.175 Y65.475 E78.31529
G1 X139.648 Y66.004 E78.37194
G1 X139.885 Y66.323 E78.40366
G1 X140.003 Y66.492 E78.42012
G1 X140.536 Y67.412 E78.50499
G1 X140.627 Y67.605 E78.52202
G1 X140.893 Y68.263 E78.57868
G1 X141.017 Y68.671 E78.61271
G1 X141.07 Y68.87 E78.62915
G1 X141.214 Y69.565 E78.68581
G1 X141.259 Y69.948 E78.71659
G1 X141.277 Y70.156 E78.73326
G1 X141.3 Y70.699 E78.77664
G1 X141.3 Y149.299 E85.05083
G1 X141.277 Y149.837 E85.09382
G1 X141.259 Y150.047 E85.11064
G1 X141.159 Y150.75 E85.16732
G1 X141.07 Y151.13 E85.19848
G1 X141.017 Y151.329 E85.21492
G1 X140.796 Y152.004 E85.27161
G1 X140.627 Y152.395 E85.30561
G1 X140.536 Y152.588 E85.32265
G1 X140.003 Y153.508 E85.40752
G1 X139.885 Y153.677 E85.42397
G1 X139.447 Y154.235 E85.4806
G1 X139.175 Y154.525 E85.51234
G1 X139.025 Y154.675 E85.52927
G1 X138.496 Y155.148 E85.58592
G1 X138.177 Y155.385 E85.61764
G1 X138.008 Y155.503 E85.63409
G1 X137.088 Y156.036 E85.71896
G1 X136.895 Y156.127 E85.736
G1 X136.237 Y156.393 E85.79265
G1 X135.829 Y156.517 E85.82669
G1 X135.63 Y156.57 E85.84313
G1 X134.935 Y156.714 E85.89979
G1 X134.547 Y156.759 E85.93096
G1 X134.337 Y156.777 E85.94779
G1 X133.799 Y156.8 E85.99077
G1 X86.201 Y156.8 E89.79025
G1 X85.663 Y156.777 E89.83324
G1 X85.453 Y156.759 E89.85006
G1 X84.75 Y156.659 E89.90674
G1 X84.37 Y156.57 E89.9379
G1 X84.171 Y156.517 E89.95434
G1 X83.496 Y156.296 E90.01103
G1 X83.105 Y156.127 E90.04503
G1 X82.912 Y156.036 E90.06207
G1 X81.992 Y155.503 E90.14694
G1 X81.823 Y155.385 E90.16339
G1 X81.265 Y154.947 E90.22002
G1 X80.975 Y154.675 E90.25176
G1 X80.825 Y154.525 E90.26869
G1 X80.352 Y153.996 E90.32533
G1 X80.115 Y153.677 E90.35706
G1 X79.997 Y153.508 E90.37351
G1 X79.464 Y152.588 E90.45838
G1 X79.373 Y152.395 E90.47542
G1 X79.107 Y151.737 E90.53207
G1 X78.983 Y151.329 E90.56611
G1 X78.93 Y151.13 E90.58255
G1 X78.786 Y150.435 E90.6392
G1 X78.741 Y150.052 E90.66999
G1 X78.723 Y149.844 E90.68665
G1 X78.7 Y149.301 E90.73004
G1 X78.7 Y70.701 E97.00423
G1 X78.723 Y70.163 E97.04721
G1 X78.741 Y69.953 E97.06404
G1 X78.841 Y69.25 E97.12072
G1 X78.93 Y68.87 E97.15187
G1 X78.983 Y68.671 E97.16831
G1 X79.204 Y67.996 E97.22501
G1 X79.373 Y67.605 E97.25901
G1 X79.464 Y67.412 E97.27604
G1 X79.997 Y66.492 E97.36091
G1 X80.115 Y66.323 E97.37737
G1 X80.553 Y65.765 E97.43399
G0 F6000 X81.249 Y65.899
G1 F1200 X81.399 Y65.749 E97.45093
G1 X82.167 Y65.106 E97.53088
G1 X82.336 Y64.988 E97.54733
G1 X83.168 Y64.506 E97.62409
G1 X83.361 Y64.415 E97.64112
G1 X83.988 Y64.164 E97.69503
G1 X84.325 Y64.063 E97.72311
G1 X84.524 Y64.01 E97.73955
G1 X85.504 Y63.839 E97.81896
G1 X85.714 Y63.821 E97.83579
G1 X86.201 Y63.8 E97.8747
G1 X133.799 Y63.8 E101.67418
G1 X134.286 Y63.821 E101.71309
G1 X134.496 Y63.839 E101.72991
G1 X135.476 Y64.01 E101.80932
G1 X135.675 Y64.063 E101.82576
G1 X136.316 Y64.275 E101.87965
G1 X136.639 Y64.415 E101.90775
G1 X136.832 Y64.506 E101.92479
G1 X137.664 Y64.988 E102.00154
G1 X137.833 Y65.106 E102.01799
G1 X138.601 Y65.749 E102.09795
G1 X138.751 Y65.899 E102.11488
G1 X139.394 Y66.667 E102.19484
G1 X139.512 Y66.836 E102.21129
G1 X139.994 Y67.668 E102.28804
G1 X140.085 Y67.861 E102.30508
G1 X140.336 Y68.488 E102.35899
G1 X140.437 Y68.825 E102.38707
G1 X140.49 Y69.024 E102.40351
G1 X140.661 Y70 E102.48261
G1 X140.679 Y70.208 E102.49927
G1 X140.7 Y70.699 E102.5385
G1 X140.7 Y149.299 E108.81269
G1 X140.679 Y149.786 E108.8516
G1 X140.661 Y149.996 E108.86843
G1 X140.49 Y150.976 E108.94784
G1 X140.437 Y151.175 E108.96428
G1 X140.225 Y151.816 E109.01817
G1 X140.085 Y152.139 E109.04627
G1 X139.994 Y152.332 E109.0633
G1 X139.512 Y153.164 E109.14006
G1 X139.394 Y153.333 E109.15651
G1 X138.751 Y154.101 E109.23647
G1 X138.601 Y154.251 E109.2534
G1 X137.833 Y154.894 E109.33335
G1 X137.664 Y155.012 E109.34981
G1 X136.832 Y155.494 E109.42656
G1 X136.639 Y155.585 E109.44359
G1 X136.012 Y155.836 E109.4975
G1 X135.675 Y155.937 E109.52559
G1 X135.476 Y155.99 E109.54203
G1 X134.496 Y156.161 E109.62144
G1 X134.286 Y156.179 E109.63826
G1 X133.799 Y156.2 E109.67717
G1 X86.201 Y156.2 E113.47665
G1 X85.714 Y156.179 E113.51556
G1 X85.504 Y156.161 E113.53238
G1 X84.524 Y155.99 E113.61179
G1 X84.325 Y155.937 E113.62823
G1 X83.684 Y155.725 E113.68213
G1 X83.361 Y155.585 E113.71023
G1 X83.168 Y155.494 E113.72726
G1 X82.336 Y155.012 E113.80401
G1 X82.167 Y154.894 E113.82047
G1 X81.399 Y154.251 E113.90042
G1 X81.249 Y154.101 E113.91736
