;FLAVOR:Marlin
;TIME:29228
;Filament used: 37.8898m
;Layer height: 0.32
;MINX:26.281
;MINY:59.2
;MINZ:0.32
;MAXX:197.36
;MAXY:167.529
;MAXZ:89.92
;Generated with Cura_SteamEngine 4.13.0
M140 S60
M105
M190 S60
M104 S200
M105
M109 S200
M82 ;absolute extrusion mode
; Ender 3 Custom Start G-code
G92 E0 ; Reset Extruder
G28 ; Home all axes
G1 Z2.0 F3000 ; Move Z Axis up little to prevent scratching of Heat Bed
G1 X0.1 Y20 Z0.3 F5000.0 ; Move to start position
G1 X0.1 Y200.0 Z0.3 F1500.0 E15 ; Draw the first line
G1 X0.4 Y200.0 Z0.3 F5000.0 ; Move to side a little
G1 X0.4 Y20 Z0.3 F1500.0 E30 ; Draw the second line
G92 E0 ; Reset Extruder
G1 Z2.0 F3000 ; Move Z Axis up little to prevent scratching of Heat Bed
G1 X5 Y20 Z0.3 F5000.0 ; Move over to prevent blob squish
G92 E0
G92 E0
G1 F1500 E-6.5
;LAYER_COUNT:281
;LAYER:0
M107
G0 F6000 X33.661 Y75.811 Z0.32
;TYPE:SKIRT
G1 F1500 E0
G1 F1200 X33.865 Y75.735 E0.01738
G1 X34.729 Y75.456 E0.08985
G1 X35.693 Y75.24 E0.16871
G1 X35.934 Y75.198 E0.18824
G1 X36.939 Y75.073 E0.26908
G1 X39.473 Y74.885 E0.47191
G1 X41.985 Y74.627 E0.67348
G1 X44.493 Y74.297 E0.87541
G1 X47.017 Y73.892 E1.07946
G1 X49.479 Y73.426 E1.27948
G1 X51.997 Y72.874 E1.48525
G1 X54.402 Y72.277 E1.68305
G1 X56.877 Y71.586 E1.88818
G1 X59.301 Y70.835 E2.09074
G1 X61.732 Y70.006 E2.29577
G1 X64.08 Y69.13 E2.49582
G1 X66.436 Y68.175 E2.69875
G1 X68.753 Y67.157 E2.90076
G1 X71.055 Y66.069 E3.10401
G1 X73.307 Y64.924 E3.30567
G1 X75.545 Y63.707 E3.50903
G1 X77.728 Y62.437 E3.71063
G1 X80.046 Y61 E3.92833
G1 X81.079 Y60.42 E4.0229
G1 X81.26 Y60.332 E4.03896
G1 X82.093 Y59.971 E4.11143
G1 X82.928 Y59.693 E4.18168
G1 X83.148 Y59.63 E4.19995
G1 X84.031 Y59.419 E4.27242
G1 X84.954 Y59.284 E4.34688
G1 X85.163 Y59.263 E4.36365
G1 X86.04 Y59.212 E4.43377
G1 X86.935 Y59.2 E4.50522
G1 X133.093 Y59.2 E8.18975
G1 X133.931 Y59.211 E8.25665
G1 X134.582 Y59.241 E8.30867
G1 X134.787 Y59.257 E8.32509
G1 X135.688 Y59.368 E8.39755
G1 X136.517 Y59.542 E8.46517
G1 X136.734 Y59.597 E8.48304
G1 X137.825 Y59.939 E8.5743
G1 X138.344 Y60.134 E8.61856
G1 X140.826 Y61.029 E8.82917
G1 X143.216 Y61.816 E9.03003
G1 X145.687 Y62.552 E9.23584
G1 X148.086 Y63.194 E9.43408
G1 X150.602 Y63.791 E9.64049
G1 X153.085 Y64.308 E9.84294
G1 X155.579 Y64.751 E10.04514
G1 X158.043 Y65.119 E10.24401
G1 X160.594 Y65.427 E10.44912
G1 X163.138 Y65.661 E10.65305
G1 X165.626 Y65.818 E10.85205
G1 X168.233 Y65.91 E11.06028
G1 X170.076 Y65.929 E11.20741
G1 X185.317 Y65.93 E12.42401
G1 X186.071 Y65.942 E12.4842
G1 X186.977 Y65.997 E12.55666
G1 X187.658 Y66.091 E12.61153
G1 X187.971 Y66.145 E12.63689
G1 X188.858 Y66.338 E12.70935
G1 X190.147 Y66.773 E12.81794
G1 X190.341 Y66.853 E12.83469
G1 X191.164 Y67.235 E12.90712
G1 X191.991 Y67.716 E12.98349
G1 X192.05 Y67.754 E12.98909
G1 X192.997 Y68.443 E13.08258
G1 X193.267 Y68.664 E13.11043
G1 X193.943 Y69.269 E13.18284
G1 X194.827 Y70.252 E13.28837
G1 X195.405 Y71.056 E13.36742
G1 X195.594 Y71.348 E13.39518
G1 X196.053 Y72.131 E13.46763
G1 X196.441 Y72.951 E13.54004
G1 X196.816 Y73.997 E13.62874
G1 X196.905 Y74.295 E13.65357
G1 X197.126 Y75.176 E13.72607
G1 X197.307 Y76.47 E13.83037
G1 X197.321 Y76.656 E13.84526
G1 X197.344 Y77.082 E13.87932
G1 X197.357 Y77.52 E13.91429
G1 X197.36 Y77.807 E13.93721
G1 X197.359 Y155.45 E20.13501
G1 X197.347 Y156.236 E20.19776
G1 X197.293 Y157.142 E20.2702
G1 X197.201 Y157.815 E20.32443
G1 X197.148 Y158.125 E20.34953
G1 X196.955 Y159.012 E20.42199
G1 X196.686 Y159.878 E20.49438
G1 X196.517 Y160.316 E20.53185
G1 X196.437 Y160.51 E20.5486
G1 X196.055 Y161.333 E20.62103
G1 X195.574 Y162.16 E20.6974
G1 X195.536 Y162.219 E20.703
G1 X194.847 Y163.166 E20.79649
G1 X194.626 Y163.436 E20.82434
G1 X194.021 Y164.112 E20.89675
G1 X193.038 Y164.996 E21.00228
G1 X192.24 Y165.57 E21.08075
G1 X191.95 Y165.758 E21.10834
G1 X191.167 Y166.217 E21.18079
G1 X190.347 Y166.606 E21.25324
G1 X189.307 Y166.981 E21.34148
G1 X189.007 Y167.071 E21.36649
G1 X188.127 Y167.293 E21.43893
G1 X186.808 Y167.477 E21.54524
G1 X186.619 Y167.491 E21.56037
G1 X186.194 Y167.514 E21.59434
G1 X185.711 Y167.527 E21.63291
G1 X185.501 Y167.529 E21.64968
G1 X138.821 Y167.528 E25.37588
G1 X138.116 Y167.518 E25.43216
G1 X137.224 Y167.467 E25.50348
G1 X136.987 Y167.443 E25.52249
G1 X136.089 Y167.311 E25.59494
G1 X135.411 Y167.158 E25.65043
G1 X135.27 Y167.121 E25.66206
G1 X134.231 Y166.788 E25.74916
G1 X134.01 Y166.704 E25.76803
G1 X131.487 Y165.785 E25.98237
G1 X129.076 Y164.984 E26.18517
G1 X126.651 Y164.254 E26.38732
G1 X124.207 Y163.592 E26.58944
G1 X121.726 Y162.997 E26.7931
G1 X119.249 Y162.474 E26.99519
G1 X116.751 Y162.022 E27.19783
G1 X114.262 Y161.642 E27.39881
G1 X111.745 Y161.331 E27.60126
G1 X109.192 Y161.089 E27.80596
G1 X106.675 Y160.922 E28.00732
G1 X104.14 Y160.825 E28.20983
G1 X101.968 Y160.8 E28.38322
G1 X86.757 Y160.799 E29.59742
G1 X86.069 Y160.789 E29.65235
G1 X85.418 Y160.759 E29.70437
G1 X85.213 Y160.743 E29.72078
G1 X84.312 Y160.632 E29.79325
G1 X83.516 Y160.466 E29.85816
G1 X83.328 Y160.419 E29.87362
G1 X82.458 Y160.161 E29.94606
G1 X81.654 Y159.844 E30.01505
G1 X81.417 Y159.739 E30.03574
G1 X80.309 Y159.166 E30.13531
G1 X79.522 Y158.695 E30.20853
G1 X78.526 Y158.084 E30.3018
G1 X76.297 Y156.803 E30.50702
G1 X74.074 Y155.607 E30.70852
G1 X71.817 Y154.474 E30.91011
G1 X69.515 Y153.399 E31.11291
G1 X67.175 Y152.385 E31.31648
G1 X64.806 Y151.437 E31.52017
G1 X62.448 Y150.572 E31.72066
G1 X60.052 Y149.768 E31.9224
G1 X57.621 Y149.028 E32.12524
G1 X55.139 Y148.348 E32.33067
G1 X52.715 Y147.758 E32.52981
G1 X50.196 Y147.218 E32.73546
G1 X47.739 Y146.766 E32.93488
G1 X45.206 Y146.373 E33.13949
G1 X42.715 Y146.058 E33.33992
G1 X40.207 Y145.813 E33.54107
G1 X38.287 Y145.691 E33.69464
G1 X38.09 Y145.67 E33.71046
G1 X37.096 Y145.602 E33.78999
G1 X36.753 Y145.573 E33.81746
G1 X36.537 Y145.551 E33.83479
G1 X35.639 Y145.419 E33.90725
G1 X34.845 Y145.234 E33.97233
G1 X34.62 Y145.172 E33.99096
G1 X33.756 Y144.893 E34.06343
G1 X32.653 Y144.406 E34.15968
G1 X32.425 Y144.289 E34.18013
G1 X31.637 Y143.839 E34.25257
G1 X30.584 Y143.079 E34.35623
G1 X30.381 Y142.912 E34.37721
G1 X29.707 Y142.305 E34.44962
G1 X29.088 Y141.641 E34.52208
G1 X28.755 Y141.23 E34.5643
G1 X28.603 Y141.032 E34.58423
G1 X27.869 Y139.938 E34.68939
G1 X27.339 Y138.898 E34.78257
G1 X27.21 Y138.605 E34.80812
G1 X26.881 Y137.759 E34.88058
G1 X26.628 Y136.888 E34.95298
G1 X26.516 Y136.368 E34.99544
G1 X26.478 Y136.167 E35.01177
G1 X26.349 Y135.269 E35.08419
G1 X26.311 Y134.744 E35.12621
G1 X26.299 Y134.492 E35.14634
G1 X26.288 Y134.132 E35.1751
G1 X26.281 Y133.526 E35.22347
G1 X26.282 Y87.075 E38.93139
G1 X26.294 Y86.321 E38.99159
G1 X26.349 Y85.415 E39.06404
G1 X26.444 Y84.728 E39.1194
G1 X26.498 Y84.416 E39.14468
G1 X26.692 Y83.53 E39.21708
G1 X27.02 Y82.511 E39.30253
G1 X27.055 Y82.419 E39.31039
G1 X27.415 Y81.585 E39.3829
G1 X27.767 Y80.922 E39.44282
G1 X27.936 Y80.63 E39.46975
G1 X28.425 Y79.865 E39.54222
G1 X28.979 Y79.146 E39.61468
G1 X29.416 Y78.661 E39.66679
G1 X29.555 Y78.516 E39.68282
G1 X30.477 Y77.665 E39.78298
G1 X30.526 Y77.625 E39.78803
G1 X31.445 Y76.955 E39.87881
G1 X31.663 Y76.814 E39.89954
G1 X32.446 Y76.356 E39.97195
G1 X33.661 Y75.811 E40.07824
G1 F1500 E33.57824
G0 F6000 X81.034 Y84.784
G0 X81.535 Y85.068
G0 X81.936 Y85.502
G0 X82.175 Y86.025
G0 X82.245 Y86.503
G0 X82.239 Y108.231
G0 X89.235 Y112.9
G0 X89.6 Y112.9
G1 F1500 E40.07824
G1 F1200 X91.028 Y112.9 E40.19223
G1 X91.293 Y112.86 E40.21363
G1 X91.453 Y112.795 E40.22741
G1 X91.705 Y112.884 E40.24875
G1 X91.874 Y112.9 E40.2623
G1 X95.6 Y112.9 E40.55972
G1 X95.6 Y145.9 E43.19392
G1 X93.55 Y145.9 E43.35756
G1 X93.55 Y145.211 E43.41256
G1 X93.542 Y145.067 E43.42408
G1 X93.518 Y144.793 E43.44603
G1 X93.462 Y144.496 E43.47016
G1 X93.426 Y144.367 E43.48085
G1 X93.237 Y143.853 E43.52456
G1 X93.171 Y143.714 E43.53685
G1 X93.041 Y143.489 E43.55759
G1 X92.953 Y143.363 E43.56986
G1 X92.583 Y142.919 E43.61599
G1 X92.464 Y142.8 E43.62943
G1 X92.261 Y142.633 E43.65041
G1 X92.14 Y142.549 E43.66217
G1 X91.642 Y142.261 E43.70809
G1 X91.499 Y142.194 E43.72069
G1 X91.249 Y142.103 E43.74193
G1 X91.094 Y142.062 E43.75473
G1 X90.577 Y141.973 E43.7966
G1 X90.297 Y141.95 E43.81903
G1 X89.6 Y141.95 E43.87467
G1 X89.6 Y112.9 E46.19357
G0 F6000 X89.265 Y112.3
G1 F1200 X91.028 Y112.3 E46.3343
G1 X91.24 Y112.212 E46.35262
G1 X91.451 Y112.001 E46.37644
G1 X91.662 Y112.212 E46.40026
G1 X91.874 Y112.3 E46.41858
G1 X96.2 Y112.3 E46.7639
G1 X96.2 Y146.5 E49.49389
G1 X92.95 Y146.5 E49.75332
G1 X92.949 Y145.188 E49.85805
G1 X92.92 Y144.846 E49.88545
G1 X92.863 Y144.574 E49.90763
G1 X92.674 Y144.06 E49.95135
G1 X92.652 Y144.014 E49.95542
G1 X92.522 Y143.789 E49.97616
G1 X92.492 Y143.747 E49.98028
G1 X92.122 Y143.303 E50.02642
G1 X92.083 Y143.263 E50.03088
G1 X91.88 Y143.096 E50.05186
G1 X91.839 Y143.068 E50.05582
G1 X91.341 Y142.78 E50.10174
G1 X91.294 Y142.758 E50.10589
G1 X91.044 Y142.667 E50.12712
G1 X90.992 Y142.653 E50.13142
G1 X90.475 Y142.564 E50.1733
G1 X90.297 Y142.55 E50.18755
G1 X89 Y142.55 E50.29108
G1 X89 Y112.465 E52.6926
G1 X89.265 Y112.3 E52.71752
G0 F6000 X112.293 Y112.3
G1 F1200 X131 Y112.3 E54.21079
G1 X131 Y142.55 E56.62548
G1 X129.688 Y142.551 E56.7302
G1 X129.346 Y142.58 E56.7576
G1 X129.074 Y142.637 E56.77979
G1 X128.56 Y142.826 E56.8235
G1 X128.514 Y142.848 E56.82757
G1 X128.289 Y142.978 E56.84831
G1 X128.247 Y143.008 E56.85243
G1 X127.803 Y143.378 E56.89857
G1 X127.763 Y143.417 E56.90303
G1 X127.596 Y143.62 E56.92401
G1 X127.568 Y143.661 E56.92798
G1 X127.28 Y144.159 E56.9739
G1 X127.258 Y144.206 E56.97804
G1 X127.167 Y144.456 E56.99928
G1 X127.153 Y144.508 E57.00358
G1 X127.064 Y145.025 E57.04545
G1 X127.05 Y145.203 E57.0597
G1 X127.05 Y146.5 E57.16324
G1 X112.293 Y146.5 E58.3412
G1 X112.293 Y112.3 E61.0712
G0 F6000 X112.893 Y112.9
G1 F1200 X130.4 Y112.9 E62.46868
G1 X130.4 Y141.95 E64.78758
G1 X129.711 Y141.95 E64.84258
G1 X129.567 Y141.958 E64.85409
G1 X129.293 Y141.982 E64.87604
G1 X128.996 Y142.038 E64.90017
G1 X128.867 Y142.074 E64.91086
G1 X128.353 Y142.263 E64.95458
G1 X128.214 Y142.329 E64.96686
G1 X127.989 Y142.459 E64.9876
G1 X127.863 Y142.547 E64.99987
G1 X127.419 Y142.917 E65.046
G1 X127.3 Y143.036 E65.05944
G1 X127.133 Y143.239 E65.08042
G1 X127.049 Y143.36 E65.09218
G1 X126.761 Y143.858 E65.1381
G1 X126.694 Y144.001 E65.15071
G1 X126.603 Y144.251 E65.17194
G1 X126.562 Y144.406 E65.18474
G1 X126.473 Y144.923 E65.22662
G1 X126.45 Y145.203 E65.24904
G1 X126.45 Y145.9 E65.30468
G1 X112.893 Y145.9 E66.38686
G1 X112.893 Y112.9 E69.02106
G1 F1500 E62.52106
G0 F6000 X112.528 Y112.9
G0 X112.54 Y112.547
G0 X130.753 Y112.547
G0 X130.753 Y142.303
G0 X128.821 Y142.479
G0 X131.323 Y147.02
G1 F1500 E69.02106
G1 F1200 X131.509 Y146.829 E69.04234
G1 X131.775 Y146.756 E69.06436
G1 X132.033 Y146.824 E69.08566
G1 X132.221 Y147.01 E69.10677
G1 X132.294 Y147.273 E69.12856
G1 X132.226 Y147.533 E69.15001
G1 X132.041 Y147.721 E69.17107
G1 X131.776 Y147.795 E69.19303
G1 X131.522 Y147.729 E69.21398
G1 X131.329 Y147.54 E69.23554
G1 X131.256 Y147.276 E69.2574
G1 X131.323 Y147.02 E69.27853
G1 F1500 E62.77853
G0 F6000 X127.964 Y146.998
G0 X127.897 Y147.347
G0 X92.103 Y147.347
G0 X92.034 Y146.778
G0 X88.225 Y146.756
G1 F1500 E69.27853
G1 F1200 X88.483 Y146.824 E69.29983
G1 X88.671 Y147.01 E69.32094
G1 X88.744 Y147.273 E69.34272
G1 X88.676 Y147.533 E69.36418
G1 X88.491 Y147.721 E69.38523
G1 X88.226 Y147.795 E69.40719
G1 X87.972 Y147.729 E69.42814
G1 X87.779 Y147.54 E69.4497
G1 X87.706 Y147.276 E69.47157
G1 X87.773 Y147.02 E69.49269
G1 X87.959 Y146.829 E69.51397
G1 X88.225 Y146.756 E69.53599
G1 F1500 E63.03599
G0 F6000 X88.225 Y143.465
G0 X88.153 Y76.603
G0 X88.225 Y73.244
G1 F1500 E69.53599
G1 F1200 X87.97 Y73.177 E69.55704
G1 X87.781 Y72.993 E69.57809
G1 X87.706 Y72.725 E69.60031
G1 X87.774 Y72.467 E69.62161
G1 X87.96 Y72.279 E69.64272
G1 X88.224 Y72.205 E69.6646
G1 X88.478 Y72.271 E69.68555
G1 X88.671 Y72.46 E69.70711
G1 X88.745 Y72.724 E69.729
G1 X88.679 Y72.979 E69.75003
G1 X88.493 Y73.169 E69.77125
G1 X88.225 Y73.244 E69.79347
G1 F1500 E63.29347
G0 F6000 X92.034 Y73.221
G0 X92.103 Y72.653
G0 X127.897 Y72.653
G0 X127.963 Y73.012
G0 X131.331 Y72.993
G1 F1500 E69.79347
G1 F1200 X131.256 Y72.725 E69.81568
G1 X131.323 Y72.47 E69.83673
G1 X131.509 Y72.279 E69.85801
G1 X131.776 Y72.206 E69.8801
G1 X132.028 Y72.271 E69.90088
G1 X132.221 Y72.46 E69.92244
G1 X132.295 Y72.724 E69.94433
G1 X132.229 Y72.979 E69.96535
G1 X132.043 Y73.169 E69.98658
G1 X131.774 Y73.244 E70.00887
G1 X131.521 Y73.179 E70.02972
G1 X131.331 Y72.993 E70.05094
G1 F1500 E63.55094
G0 F6000 X129.8 Y112.535
G0 X129.8 Y113.5
;TYPE:SUPPORT
G1 F1500 E70.05094
G1 F1200 X129.8 Y141.35 E72.27405
G1 X129.523 Y141.36 E72.29618
G1 X129.154 Y141.393 E72.32575
G1 X128.766 Y141.473 E72.35737
G1 X128.025 Y141.744 E72.42035
G1 X127.578 Y142.003 E72.46159
G1 X126.926 Y142.546 E72.52932
G1 X126.592 Y142.953 E72.57135
G1 X126.175 Y143.672 E72.6377
G1 X125.994 Y144.173 E72.68022
G1 X125.87 Y144.89 E72.7383
G1 X125.85 Y145.144 E72.75864
G1 X125.85 Y145.3 E72.7711
G1 X113.493 Y145.3 E73.75748
G1 X113.493 Y113.5 E76.2959
G1 X129.8 Y113.5 E77.59759
G1 F1500 E71.09759
G0 F6000 X130.765 Y113.5
G0 X130.765 Y120
G0 X129.679 Y120
G1 F1500 E77.59759
G1 F1200 X113.612 Y120 E78.88013
G1 F1500 E72.38013
G0 F6000 X112.528 Y120
G0 X112.54 Y112.547
G0 X120 Y112.535
G0 X120 Y113.62
G1 F1500 E78.88013
G1 F1200 X120 Y145.18 E81.39939
G1 F1500 E74.89939
G0 F6000 X120 Y146.265
G0 X126.803 Y146.253
G0 X126.93 Y144.421
G0 X125.927 Y144
G1 F1500 E81.39939
G1 F1200 X113.612 Y144 E82.38242
G1 F1500 E75.88242
G0 F6000 X112.528 Y144
G0 X112.528 Y132
G0 X113.612 Y132
G1 F1500 E82.38242
G1 F1200 X129.679 Y132 E83.66496
G1 F1500 E77.16496
G0 F6000 X130.765 Y132
G0 X130.753 Y142.303
G0 X126.828 Y145.011
G0 X126.803 Y146.253
G0 X112.54 Y146.253
G0 X95.965 Y145.3
G0 X95 Y145.3
G1 F1500 E83.66496
G1 F1200 X94.15 Y145.3 E83.73281
G1 X94.14 Y145.023 E83.75494
G1 X94.107 Y144.654 E83.78451
G1 X94.027 Y144.266 E83.81613
G1 X93.756 Y143.525 E83.87911
G1 X93.497 Y143.078 E83.92035
G1 X92.954 Y142.426 E83.98808
G1 X92.547 Y142.092 E84.03011
G1 X91.828 Y141.675 E84.09646
G1 X91.327 Y141.494 E84.13898
G1 X90.61 Y141.37 E84.19706
G1 X90.356 Y141.35 E84.2174
G1 X90.2 Y141.35 E84.22986
G1 X90.2 Y113.5 E86.45296
G1 X95 Y113.5 E86.83612
G1 X95 Y145.3 E89.37453
G0 F6000 X94.879 Y144
G1 F1200 X94.055 Y144 E89.44031
G1 F1500 E82.94031
G0 F6000 X92.879 Y143.934
G0 X93.197 Y146.253
G0 X95.953 Y146.253
G0 X95.965 Y132
G0 X94.879 Y132
G1 F1500 E89.44031
G1 F1200 X90.319 Y132 E89.80431
G1 F1500 E83.30431
G0 F6000 X89.235 Y132
G0 X89.235 Y120
G0 X90.319 Y120
G1 F1500 E89.80431
G1 F1200 X94.879 Y120 E90.16831
G1 F1500 E83.66831
;MESH:TopLid.STL
G0 F6000 X95.965 Y120
G0 X95.953 Y112.547
G0 X89.247 Y112.547
G0 X89.235 Y120
G0 X82.246 Y120
G0 X81.111 Y120
G0 X80.681 Y87.789
;TYPE:WALL-INNER
G1 F1500 E90.16831
G1 F1200 X80.662 Y87.717 E90.17425
G1 X80.48 Y87.329 E90.20846
G1 X80.236 Y86.98 E90.24245
G1 X79.934 Y86.677 E90.2766
G1 X79.583 Y86.431 E90.31082
G1 X79.195 Y86.251 E90.34496
G1 X79.124 Y86.232 E90.35082
G1 X80.325 Y86.232 E90.4177
G1 X80.552 Y86.296 E90.43652
G1 X80.657 Y86.439 E90.45069
G1 X80.681 Y86.593 E90.46313
G1 X80.681 Y87.789 E90.55297
G0 F6000 X80.681 Y89.324
G1 F1200 X80.681 Y90.134 E90.61763
G1 X80.681 Y130.53 E93.84221
G1 X80.681 Y131.339 E93.90679
G1 X80.662 Y131.267 E93.91273
G1 X80.48 Y130.879 E93.9178
G1 X80.236 Y130.53 E93.94184
G1 X79.934 Y130.227 E93.97599
G1 X79.583 Y129.981 E94.0102
G1 X79.195 Y129.801 E94.04435
G1 X78.781 Y129.69 E94.07856
G1 X78.356 Y129.654 E94.11261
G1 X77.931 Y129.69 E94.14665
G1 X77.517 Y129.801 E94.18087
G1 X77.129 Y129.981 E94.21501
G1 X76.778 Y130.227 E94.24923
G1 X76.476 Y130.53 E94.28337
G1 X76.232 Y130.879 E94.31737
G1 X76.05 Y131.267 E94.35158
G1 X75.94 Y131.681 E94.38577
G1 X75.903 Y132.107 E94.4199
G1 X75.94 Y132.532 E94.45396
G1 X76.05 Y132.946 E94.48815
G1 X76.232 Y133.335 E94.52243
G1 X76.477 Y133.684 E94.55647
G1 X76.779 Y133.986 E94.59056
G1 X77.129 Y134.232 E94.62471
G1 X77.517 Y134.412 E94.65885
G1 X77.591 Y134.432 E94.66497
