;FLAVOR:Marlin
;TIME:8905
;Filament used: 6.89357m
;Layer height: 0.2
;MINX:60.925
;MINY:75.747
;MINZ:0.2
;MAXX:159.075
;MAXY:144.347
;MAXZ:18
;Generated with Cura_SteamEngine 4.13.0
M140 S60
M105
M190 S60
M104 S200
M105
M109 S200
M82 ;absolute extrusion mode
; Ender 3 Custom Start G-code
G92 E0 ; Reset Extruder
G28 ; Home all axes
G1 Z2.0 F3000 ; Move Z Axis up little to prevent scratching of Heat Bed
G1 X0.1 Y20 Z0.3 F5000.0 ; Move to start position
G1 X0.1 Y200.0 Z0.3 F1500.0 E15 ; Draw the first line
G1 X0.4 Y200.0 Z0.3 F5000.0 ; Move to side a little
G1 X0.4 Y20 Z0.3 F1500.0 E30 ; Draw the second line
G92 E0 ; Reset Extruder
G1 Z2.0 F3000 ; Move Z Axis up little to prevent scratching of Heat Bed
G1 X5 Y20 Z0.3 F5000.0 ; Move over to prevent blob squish
G92 E0
G92 E0
G1 F1500 E-6.5
;LAYER_COUNT:90
;LAYER:0
M107
G0 F6000 X64.787 Y81.773 Z0.2
;TYPE:SKIRT
G1 F1500 E0
G1 F1200 X65.519 Y81.237 E0.04526
G1 X66.295 Y80.767 E0.09053
G1 X67.11 Y80.368 E0.1358
G1 X67.957 Y80.041 E0.18109
G1 X68.829 Y79.791 E0.22635
G1 X69.72 Y79.618 E0.27163
G1 X70.945 Y79.51 E0.33299
G1 X71.266 Y79.501 E0.34901
G1 X71.555 Y79.497 E0.36343
G1 X86.592 Y79.497 E1.11363
G1 X89.195 Y79.46 E1.2435
G1 X91.754 Y79.352 E1.37129
G1 X94.254 Y79.174 E1.49633
G1 X96.79 Y78.923 E1.62347
G1 X99.326 Y78.598 E1.75102
G1 X101.825 Y78.206 E1.87722
G1 X104.314 Y77.743 E2.00353
G1 X106.782 Y77.212 E2.12948
G1 X109.234 Y76.611 E2.25543
G1 X110.19 Y76.348 E2.3049
G1 X111.194 Y76.087 E2.35665
G1 X112.081 Y75.898 E2.4019
G1 X112.982 Y75.787 E2.44719
G1 X113.495 Y75.76 E2.47282
G1 X113.815 Y75.751 E2.48879
G1 X114.105 Y75.747 E2.50326
G1 X148.068 Y75.747 E4.19768
G1 X148.914 Y75.758 E4.23989
G1 X149.82 Y75.811 E4.28517
G1 X150.717 Y75.944 E4.33041
G1 X151.6 Y76.155 E4.3757
G1 X152.461 Y76.442 E4.42098
G1 X153.293 Y76.805 E4.46627
G1 X154.089 Y77.239 E4.5115
G1 X154.845 Y77.742 E4.5568
G1 X155.553 Y78.31 E4.60209
G1 X156.209 Y78.937 E4.64736
G1 X156.807 Y79.62 E4.69265
G1 X157.342 Y80.353 E4.73792
G1 X157.811 Y81.13 E4.7832
G1 X158.21 Y81.945 E4.82847
G1 X158.535 Y82.792 E4.87373
G1 X158.784 Y83.665 E4.91903
G1 X158.956 Y84.556 E4.9643
G1 X159.062 Y85.767 E5.02495
G1 X159.071 Y86.087 E5.04092
G1 X159.075 Y86.377 E5.05539
G1 X159.074 Y133.439 E7.40332
G1 X159.065 Y134.166 E7.43959
G1 X159.014 Y135.072 E7.48486
G1 X158.883 Y135.97 E7.53014
G1 X158.674 Y136.853 E7.57541
G1 X158.388 Y137.714 E7.62067
G1 X158.027 Y138.547 E7.66597
G1 X157.594 Y139.344 E7.71122
G1 X157.093 Y140.101 E7.75651
G1 X156.527 Y140.81 E7.80177
G1 X155.9 Y141.467 E7.84708
G1 X155.219 Y142.066 E7.89233
G1 X154.487 Y142.603 E7.93762
G1 X153.711 Y143.073 E7.98288
G1 X152.896 Y143.474 E8.0282
G1 X152.05 Y143.8 E8.07343
G1 X151.178 Y144.052 E8.11871
G1 X150.287 Y144.225 E8.164
G1 X149.055 Y144.334 E8.2257
G1 X148.734 Y144.343 E8.24172
G1 X148.445 Y144.347 E8.25614
G1 X114.322 Y144.346 E9.95854
G1 X113.614 Y144.335 E9.99387
G1 X112.708 Y144.281 E10.03915
G1 X112.033 Y144.188 E10.07315
G1 X109.34 Y143.726 E10.20946
G1 X106.854 Y143.373 E10.33473
G1 X104.346 Y143.088 E10.46066
G1 X101.806 Y142.872 E10.58784
G1 X99.306 Y142.731 E10.71277
G1 X95.346 Y142.647 E10.91038
G1 X71.784 Y142.646 E12.08589
G1 X71.086 Y142.636 E12.12072
G1 X70.18 Y142.583 E12.16599
G1 X69.283 Y142.45 E12.21123
G1 X68.4 Y142.239 E12.25653
G1 X67.539 Y141.952 E12.30181
G1 X66.707 Y141.589 E12.34709
G1 X65.911 Y141.155 E12.39233
G1 X65.155 Y140.652 E12.43763
G1 X64.447 Y140.084 E12.48291
G1 X63.791 Y139.457 E12.52819
G1 X63.193 Y138.774 E12.57348
G1 X62.658 Y138.041 E12.61875
G1 X62.189 Y137.264 E12.66403
G1 X61.79 Y136.449 E12.7093
G1 X61.465 Y135.602 E12.75456
G1 X61.216 Y134.729 E12.79985
G1 X61.044 Y133.838 E12.84513
G1 X60.938 Y132.616 E12.90632
G1 X60.929 Y132.284 E12.92289
G1 X60.925 Y132.005 E12.93681
G1 X60.926 Y90.36 E15.01449
G1 X60.935 Y89.671 E15.04887
G1 X60.987 Y88.765 E15.09414
G1 X61.118 Y87.867 E15.13942
G1 X61.328 Y86.985 E15.18465
G1 X61.615 Y86.124 E15.22993
G1 X61.976 Y85.291 E15.27522
G1 X62.41 Y84.494 E15.3205
G1 X62.911 Y83.738 E15.36575
G1 X63.478 Y83.029 E15.41104
G1 X64.105 Y82.372 E15.45635
G1 X64.787 Y81.773 E15.50163
G1 F1500 E9.00163
;MESH:MotorFirewall.STL
G0 F6000 X129.111 Y102.986
G0 X126.98 Y104.221
G0 X131.423 Y107.011
;TYPE:WALL-INNER
G1 F1500 E15.50163
G1 F1200 X132.475 Y107.102 E15.55431
G1 X133.527 Y107.011 E15.60699
G1 X134.546 Y106.737 E15.65964
G1 X135.503 Y106.292 E15.71229
G1 X136.368 Y105.685 E15.76501
G1 X137.114 Y104.939 E15.81765
G1 X137.72 Y104.075 E15.8703
G1 X138.166 Y103.118 E15.92297
G1 X138.439 Y102.097 E15.9757
G1 X138.53 Y101.047 E16.02828
G1 X138.439 Y99.997 E16.08086
G1 X138.166 Y98.976 E16.13359
G1 X137.72 Y98.019 E16.18626
G1 X137.116 Y97.155 E16.23886
G1 X136.368 Y96.408 E16.2916
G1 X135.503 Y95.801 E16.34432
G1 X134.546 Y95.356 E16.39697
G1 X133.525 Y95.083 E16.4497
G1 X132.475 Y94.992 E16.50228
G1 X131.425 Y95.083 E16.55486
G1 X130.404 Y95.356 E16.60759
G1 X129.447 Y95.801 E16.66024
G1 X128.581 Y96.408 E16.713
G1 X127.835 Y97.155 E16.76567
G1 X127.231 Y98.019 E16.81827
G1 X126.784 Y98.976 E16.87096
G1 X126.511 Y99.997 E16.92369
G1 X126.42 Y101.047 E16.97627
G1 X126.511 Y102.097 E17.02885
G1 X126.784 Y103.118 E17.08158
G1 X127.232 Y104.075 E17.1343
G1 X127.837 Y104.939 E17.18692
G1 X128.582 Y105.685 E17.23952
G1 X129.447 Y106.292 E17.29224
G1 X130.404 Y106.737 E17.34489
G1 X131.423 Y107.011 E17.39754
G0 F6000 X131.528 Y106.418
G1 F1200 X132.475 Y106.5 E17.44496
G1 X133.422 Y106.418 E17.49238
G1 X134.34 Y106.171 E17.53981
G1 X135.202 Y105.77 E17.58724
G1 X135.981 Y105.224 E17.6347
G1 X136.653 Y104.552 E17.68212
G1 X137.198 Y103.774 E17.72951
G1 X137.6 Y102.912 E17.77696
G1 X137.846 Y101.993 E17.82442
G1 X137.928 Y101.047 E17.8718
G1 X137.846 Y100.101 E17.91917
G1 X137.6 Y99.182 E17.96663
G1 X137.198 Y98.32 E18.01408
G1 X136.654 Y97.542 E18.06145
G1 X135.981 Y96.869 E18.10893
G1 X135.202 Y96.323 E18.15639
G1 X134.34 Y95.922 E18.20382
G1 X133.421 Y95.676 E18.25128
G1 X132.475 Y95.594 E18.29866
G1 X131.529 Y95.676 E18.34603
G1 X130.61 Y95.922 E18.39349
G1 X129.748 Y96.323 E18.44093
G1 X128.968 Y96.869 E18.48843
G1 X128.297 Y97.542 E18.53584
G1 X127.753 Y98.32 E18.5832
G1 X127.35 Y99.182 E18.63067
G1 X127.104 Y100.101 E18.67814
G1 X127.022 Y101.047 E18.72551
G1 X127.104 Y101.993 E18.77288
G1 X127.35 Y102.912 E18.82035
G1 X127.753 Y103.774 E18.86782
G1 X128.298 Y104.552 E18.91521
G1 X128.969 Y105.224 E18.96259
G1 X129.748 Y105.77 E19.01005
G1 X130.61 Y106.171 E19.05748
G1 X131.528 Y106.418 E19.10491
G0 F6000 X131.633 Y105.825
;TYPE:WALL-OUTER
G1 F1200 X132.475 Y105.898 E19.14707
G1 X133.317 Y105.825 E19.18924
G1 X134.134 Y105.605 E19.23145
G1 X134.901 Y105.248 E19.27366
G1 X135.594 Y104.763 E19.31586
G1 X136.192 Y104.165 E19.35805
G1 X136.676 Y103.473 E19.40018
G1 X137.034 Y102.706 E19.44241
G1 X137.253 Y101.889 E19.48461
G1 X137.326 Y101.047 E19.52677
G1 X137.253 Y100.205 E19.56894
G1 X137.034 Y99.388 E19.61114
G1 X136.676 Y98.621 E19.65337
G1 X136.192 Y97.929 E19.6955
G1 X135.594 Y97.33 E19.73773
G1 X134.901 Y96.845 E19.77993
G1 X134.134 Y96.488 E19.82213
G1 X133.317 Y96.269 E19.86433
G1 X132.475 Y96.196 E19.9065
G1 X131.633 Y96.269 E19.94866
G1 X130.816 Y96.488 E19.99086
G1 X130.049 Y96.845 E20.03307
G1 X129.356 Y97.33 E20.07527
G1 X128.759 Y97.929 E20.11746
G1 X128.274 Y98.621 E20.15962
G1 X127.916 Y99.388 E20.20185
G1 X127.697 Y100.205 E20.24405
G1 X127.624 Y101.047 E20.28621
G1 X127.697 Y101.889 E20.32838
G1 X127.916 Y102.706 E20.37058
G1 X128.274 Y103.473 E20.41281
G1 X128.759 Y104.165 E20.45497
G1 X129.356 Y104.763 E20.49712
G1 X130.049 Y105.248 E20.53932
G1 X130.816 Y105.605 E20.58153
G1 X131.633 Y105.825 E20.62374
G0 F6000 X131.519 Y106.474
G1 F1500 E14.12374
G0 F6000 X129.3 Y106.545
G0 X130.529 Y104.407
G0 X129.3 Y134.712
G0 X129.3 Y132.237
G0 X115.275 Y132.547
;TYPE:WALL-INNER
G1 F1500 E20.62374
G1 F1200 X115.275 Y130.847 E20.70856
G1 X72.725 Y130.847 E22.83139
G1 X72.725 Y91.297 E24.80454
G1 X115.275 Y91.297 E26.92737
G1 X115.275 Y87.547 E27.11446
G1 X147.275 Y87.547 E28.71095
G1 X147.275 Y132.547 E30.956
G1 X115.275 Y132.547 E32.55249
G0 F6000 X114.675 Y131.447
G1 F1200 X72.125 Y131.447 E34.67532
G1 X72.125 Y90.697 E36.70834
G1 X114.675 Y90.697 E38.83117
G1 X114.675 Y86.947 E39.01826
G1 X147.875 Y86.947 E40.67462
G1 X147.875 Y133.147 E42.97954
G1 X114.675 Y133.147 E44.6359
G1 X114.675 Y131.447 E44.72071
G0 F6000 X114.075 Y132.047
;TYPE:WALL-OUTER
G1 F1200 X71.525 Y132.047 E46.84354
G1 X71.525 Y90.097 E48.93643
G1 X114.075 Y90.097 E51.05926
G1 X114.075 Y86.347 E51.24635
G1 X148.475 Y86.347 E52.96257
G1 X148.475 Y133.747 E55.32737
G1 X114.075 Y133.747 E57.04359
G1 X114.075 Y132.047 E57.1284
G0 F6000 X114.075 Y131.647
G0 X115.485 Y131.957
G0 X115.865 Y131.957
;TYPE:SKIN
G1 F1200 X115.865 Y130.257 E57.21322
G1 X73.315 Y130.257 E59.33605
G1 X73.315 Y91.887 E61.25033
G1 X115.865 Y91.887 E63.37316
G1 X115.865 Y88.137 E63.56025
G1 X146.685 Y88.137 E65.09787
G1 X146.685 Y131.957 E67.28405
G1 X115.865 Y131.957 E68.82167
G1 F1500 E62.32167
G0 F6000 X115.485 Y131.957
G0 X115.557 Y132.265
G0 X115.585 Y134.712
G0 X130.529 Y104.407
G0 X129.3 Y106.545
G1 F1500 E68.82167
G0 F6000 X129.15 Y106.805
G1 F1200 X130.201 Y107.294 E68.8795
G1 X131.32 Y107.595 E68.93731
G1 X132.475 Y107.694 E68.99515
G1 X133.63 Y107.595 E69.05298
G1 X134.749 Y107.294 E69.11079
G1 X135.8 Y106.805 E69.16863
G1 X136.749 Y106.139 E69.22647
G1 X137.568 Y105.32 E69.28425
G1 X138.233 Y104.372 E69.34203
G1 X138.723 Y103.32 E69.39992
G1 X139.023 Y102.199 E69.45782
G1 X139.122 Y101.047 E69.5155
G1 X139.023 Y99.895 E69.57319
G1 X138.723 Y98.773 E69.63113
G1 X138.233 Y97.724 E69.6889
G1 X137.57 Y96.774 E69.74669
G1 X136.749 Y95.954 E69.80458
G1 X135.8 Y95.288 E69.86242
G1 X134.748 Y94.799 E69.9203
G1 X133.627 Y94.499 E69.9782
G1 X132.475 Y94.4 E70.03588
G1 X131.323 Y94.499 E70.09357
G1 X130.202 Y94.799 E70.15146
G1 X129.151 Y95.288 E70.2093
G1 X128.2 Y95.954 E70.26722
G1 X127.381 Y96.775 E70.32507
G1 X126.718 Y97.722 E70.38275
G1 X126.227 Y98.773 E70.44062
G1 X125.927 Y99.895 E70.49857
G1 X125.828 Y101.047 E70.55625
G1 X125.927 Y102.199 E70.61394
G1 X126.227 Y103.321 E70.67188
G1 X126.719 Y104.372 E70.72978
G1 X127.383 Y105.319 E70.78748
G1 X128.201 Y106.139 E70.84526
G1 X129.15 Y106.805 E70.9031
G1 F1500 E64.4031
G0 F6000 X129.341 Y106.476
G0 X133.375 Y106.161
G0 X134.25 Y105.925
G0 X135.07 Y105.543
G0 X135.813 Y105.024
G0 X136.453 Y104.384
G0 X136.971 Y103.643
G0 X137.354 Y102.822
G0 X137.589 Y101.947
G0 X137.652 Y101.218
G0 X137.339 Y96.967
G0 X135.451 Y98.551
G0 X137.339 Y85.382
G0 X137.339 Y87.857
G0 X146.993 Y87.829
G0 X147.065 Y88.744
G1 F1500 E70.9031
G0 F6000 X146.444 Y88.744
G1 F1200 X146.076 Y88.377 E70.92903
G0 F6000 X145.228 Y88.377
G1 F1200 X146.444 Y89.593 E71.01483
G0 F6000 X146.444 Y90.441
G1 F1200 X144.379 Y88.377 E71.16049
G0 F6000 X143.531 Y88.377
G1 F1200 X146.444 Y91.29 E71.36602
G0 F6000 X146.444 Y92.138
G1 F1200 X142.682 Y88.377 E71.63141
G0 F6000 X141.834 Y88.377
G1 F1200 X146.444 Y92.987 E71.95667
G0 F6000 X146.444 Y93.835
G1 F1200 X140.985 Y88.377 E72.3418
G0 F6000 X140.137 Y88.377
G1 F1200 X146.444 Y94.684 E72.78679
G0 F6000 X146.444 Y95.532
G1 F1200 X139.288 Y88.377 E73.29165
G0 F6000 X138.44 Y88.377
G1 F1200 X146.444 Y96.381 E73.85638
G0 F6000 X146.444 Y97.23
G1 F1200 X137.591 Y88.377 E74.481
G0 F6000 X136.743 Y88.377
G1 F1200 X146.444 Y98.078 E75.16546
G0 F6000 X146.444 Y98.927
G1 F1200 X135.894 Y88.377 E75.90982
G0 F6000 X135.046 Y88.377
G1 F1200 X146.444 Y99.775 E76.71401
G0 F6000 X146.444 Y100.624
G1 F1200 X134.197 Y88.377 E77.5781
G0 F6000 X133.349 Y88.377
G1 F1200 X146.444 Y101.472 E78.50203
G0 F6000 X146.444 Y102.321
G1 F1200 X132.5 Y88.377 E79.48585
G0 F6000 X131.651 Y88.377
G1 F1200 X146.444 Y103.169 E80.52954
G0 F6000 X146.444 Y104.018
G1 F1200 X130.803 Y88.377 E81.6331
G0 F6000 X129.954 Y88.377
G1 F1200 X146.444 Y104.866 E82.79652
G0 F6000 X146.444 Y105.715
G1 F1200 X138.536 Y97.807 E83.35447
G0 F6000 X137.975 Y98.067
G0 X138.487 Y99.363
G0 X139.085 Y99.204
G1 F1200 X146.444 Y106.563 E83.87369
G0 F6000 X146.444 Y107.412
G1 F1200 X139.293 Y100.261 E84.37823
G0 F6000 X139.351 Y101.167
G1 F1200 X146.444 Y108.26 E84.87868
G0 F6000 X146.444 Y109.109
G1 F1200 X139.283 Y101.948 E85.38393
G0 F6000 X139.146 Y102.659
G1 F1200 X146.444 Y109.957 E85.89884
G0 F6000 X146.444 Y110.806
G1 F1200 X138.967 Y103.329 E86.42639
G0 F6000 X138.708 Y103.918
G1 F1200 X146.444 Y111.654 E86.9722
G0 F6000 X146.444 Y112.503
G1 F1200 X138.438 Y104.496 E87.5371
G0 F6000 X138.088 Y104.995
G1 F1200 X146.444 Y113.352 E88.1267
G0 F6000 X146.444 Y114.2
G1 F1200 X137.735 Y105.491 E88.74117
G0 F6000 X137.311 Y105.916
G1 F1200 X146.444 Y115.049 E89.38555
G0 F6000 X146.444 Y115.897
G1 F1200 X136.884 Y106.337 E90.06006
G0 F6000 X136.386 Y106.687
G1 F1200 X146.444 Y116.746 E90.76974
G0 F6000 X146.444 Y117.594
G1 F1200 X135.882 Y107.032 E91.51495
G0 F6000 X135.302 Y107.301
G1 F1200 X146.444 Y118.443 E92.30108
G0 F6000 X146.444 Y119.291
G1 F1200 X134.706 Y107.553 E93.12926
G0 F6000 X134.038 Y107.734
G1 F1200 X146.444 Y120.14 E94.00457
G0 F6000 X146.444 Y120.988
G1 F1200 X133.318 Y107.862 E94.93068
G0 F6000 X132.537 Y107.929
G1 F1200 X146.444 Y121.837 E95.91192
G0 F6000 X146.444 Y122.685
G1 F1200 X131.62 Y107.862 E96.9578
G0 F6000 X131.674 Y107.244
G0 X130.706 Y107.036
G0 X130.545 Y107.635
G1 F1200 X146.444 Y123.534 E98.07956
G0 F6000 X146.444 Y124.382
G1 F1200 X129.119 Y107.057 E99.30194
G0 F6000 X129.381 Y106.494
G0 X127.032 Y104.144
G0 X126.468 Y104.407
G1 F1200 X114.188 Y92.126 E100.16839
G0 F6000 X113.34 Y92.126
G1 F1200 X146.444 Y125.231 E102.50409
G0 F6000 X146.444 Y126.079
G1 F1200 X112.491 Y92.126 E104.89966
G0 F6000 X111.642 Y92.126
G1 F1200 X146.444 Y126.928 E107.35513
G0 F6000 X146.444 Y127.777
G1 F1200 X110.794 Y92.126 E109.87046
G0 F6000 X109.945 Y92.126
G1 F1200 X146.444 Y128.625 E112.44567
G0 F6000 X146.444 Y129.474
G1 F1200 X109.097 Y92.126 E115.08073
G0 F6000 X108.248 Y92.126
G1 F1200 X146.444 Y130.322 E117.77567
G0 F6000 X146.444 Y131.171
G1 F1200 X107.4 Y92.126 E120.53047
G0 F6000 X106.551 Y92.126
G1 F1200 X146.141 Y131.716 E123.32376
G0 F6000 X145.292 Y131.716
G1 F1200 X105.703 Y92.126 E126.11701
G0 F6000 X104.854 Y92.126
G1 F1200 X144.444 Y131.716 E128.9103
G0 F6000 X143.595 Y131.716
G1 F1200 X104.006 Y92.126 E131.70355
G0 F6000 X103.157 Y92.126
G1 F1200 X142.747 Y131.716 E134.49684
G0 F6000 X141.898 Y131.716
G1 F1200 X102.309 Y92.126 E137.29009
G0 F6000 X101.46 Y92.126
G1 F1200 X141.05 Y131.716 E140.08338
G0 F6000 X140.201 Y131.716
G1 F1200 X100.612 Y92.126 E142.87663
G0 F6000 X99.763 Y92.126
G1 F1200 X139.353 Y131.716 E145.66992
G0 F6000 X138.504 Y131.716
G1 F1200 X98.915 Y92.126 E148.46318
G0 F6000 X98.066 Y92.126
G1 F1200 X137.656 Y131.716 E151.25646
G0 F6000 X136.807 Y131.716
G1 F1200 X97.217 Y92.126 E154.04975
G0 F6000 X96.369 Y92.126
G1 F1200 X135.958 Y131.716 E156.843
G0 F6000 X135.11 Y131.716
G1 F1200 X95.52 Y92.126 E159.63629
G0 F6000 X94.672 Y92.126
G1 F1200 X134.261 Y131.716 E162.42955
G0 F6000 X133.413 Y131.716
G1 F1200 X93.823 Y92.126 E165.22283
G0 F6000 X92.975 Y92.126
G1 F1200 X132.564 Y131.716 E168.01609
G0 F6000 X131.716 Y131.716
G1 F1200 X92.126 Y92.126 E170.80938
G0 F6000 X91.278 Y92.126
G1 F1200 X130.867 Y131.716 E173.60263
G0 F6000 X130.019 Y131.716
G1 F1200 X90.429 Y92.126 E176.39592
G0 F6000 X89.581 Y92.126
G1 F1200 X129.17 Y131.716 E179.18917
G0 F6000 X128.322 Y131.716
G1 F1200 X88.732 Y92.126 E181.98246
G0 F6000 X87.884 Y92.126
G1 F1200 X127.473 Y131.716 E184.77571
G0 F6000 X126.625 Y131.716
G1 F1200 X87.035 Y92.126 E187.569
G0 F6000 X86.187 Y92.126
G1 F1200 X125.776 Y131.716 E190.36225
G0 F6000 X124.928 Y131.716
G1 F1200 X85.338 Y92.126 E193.15554
G0 F6000 X84.49 Y92.126
G1 F1200 X124.079 Y131.716 E195.94879
G0 F6000 X123.231 Y131.716
G1 F1200 X83.641 Y92.126 E198.74208
G0 F6000 X82.793 Y92.126
G1 F1200 X122.382 Y131.716 E201.53534
G0 F6000 X121.533 Y131.716
G1 F1200 X81.944 Y92.126 E204.32859
G0 F6000 X81.095 Y92.126
G1 F1200 X120.685 Y131.716 E207.12188
G0 F6000 X119.836 Y131.716
G1 F1200 X80.247 Y92.126 E209.91513
G0 F6000 X79.398 Y92.126
